( pcb2gcode 1.3.2 )
( Software-independent Gcode )
( This file uses a mill head of 3.00000mm to drill the 3 bit sizes. )
( Bit sizes: [1.00000] [0.90000] [1.80000] )

G94       (Millimeters per minute feed rate.)
G21       (Units == Millimeters.)
G90       (Absolute coordinates.)
S7000    (RPM spindle speed.)
F600.00000 (Feedrate)
M3        (Spindle on clockwise.)
G00 Z2.00000

G0 X15.51070 Y30.30540
G1 Z-1.25000
G0 Z2.00000

G0 X18.05070 Y30.30540
G1 Z-1.25000
G0 Z2.00000

G0 X30.83170 Y10.37040
G1 Z-1.25000
G0 Z2.00000

G0 X30.83170 Y13.37040
G1 Z-1.25000
G0 Z2.00000

G0 X4.12570 Y24.36240
G1 Z-1.25000
G0 Z2.00000

G0 X29.13470 Y24.42340
G1 Z-1.25000
G0 Z2.00000

G00 Z2.000 ( All done -- retract )

M5      (Spindle off.)
M9      (Coolant off.)
M2      (Program end.)

