( pcb2gcode 1.3.2 )
( Software-independent Gcode )

G94 ( Millimeters per minute feed rate. )
G21 ( Units == Millimeters. )

G90 ( Absolute coordinates. )
S7000 ( RPM spindle speed. )
F600.00000 ( Feedrate. )

F600.00000 ( Feedrate. )
M3 ( Spindle on clockwise. )
G04 P0 ( dwell for no time -- G64 should not smooth over this point )
G00 Z2.00000 ( retract )

G00 X5.22550 Y24.35180 ( rapid move to begin. )
F300.00000
G01 Z-0.05000
G04 P0 ( dwell for no time -- G64 should not smooth over this point )
F600.00000
X5.22550 Y24.35180
X5.20200 Y24.13357
X5.13093 Y23.91485
X5.01595 Y23.71569
X4.86946 Y23.55221
X4.67604 Y23.40964
X4.46593 Y23.31609
X4.25136 Y23.26994
X4.02154 Y23.26773
X3.78613 Y23.31609
X3.58539 Y23.40489
X3.39814 Y23.53822
X3.24275 Y23.70756
X3.11740 Y23.92463
X3.04846 Y24.14390
X3.02659 Y24.37271
X3.05281 Y24.60105
X3.12116 Y24.80966
X3.23617 Y25.00883
X3.38262 Y25.17230
X3.57602 Y25.31487
X3.78613 Y25.40842
X4.01107 Y25.45622
X4.23058 Y25.45675
X4.46593 Y25.40842
X4.66670 Y25.31962
X4.85394 Y25.18629
X5.00934 Y25.01695
X5.13469 Y24.79988
X5.20363 Y24.58061
X5.22550 Y24.35180
G04 P0 ( dwell for no time -- G64 should not smooth over this point )
G00 Z2.00000 ( retract )

G00 X8.59770 Y27.09594 ( rapid move to begin. )
F300.00000
G01 Z-0.05000
G04 P0 ( dwell for no time -- G64 should not smooth over this point )
F600.00000
X8.59770 Y27.09594
X6.54625 Y27.09594
X6.39631 Y27.03387
X6.28158 Y26.91911
X6.21945 Y26.76917
X6.21945 Y24.71769
X6.24520 Y24.69193
X6.52747 Y24.69193
X6.52747 Y26.68792
X6.55676 Y26.75863
X6.62747 Y26.78792
X8.62346 Y26.78792
X8.62346 Y27.07019
X8.59770 Y27.09594
G04 P0 ( dwell for no time -- G64 should not smooth over this point )
G00 Z2.00000 ( retract )

G00 X11.42744 Y24.69193 ( rapid move to begin. )
F300.00000
G01 Z-0.05000
G04 P0 ( dwell for no time -- G64 should not smooth over this point )
F600.00000
X11.42744 Y24.69193
X11.70963 Y24.69193
X11.73544 Y24.71774
X11.73544 Y26.76902
X11.67331 Y26.91906
X11.55855 Y27.03381
X11.40864 Y27.09594
X9.35716 Y27.09594
X9.33146 Y27.07024
X9.33146 Y26.78792
X11.32744 Y26.78792
X11.39813 Y26.75863
X11.42744 Y26.68792
X11.42744 Y24.69193
G04 P0 ( dwell for no time -- G64 should not smooth over this point )
G00 Z2.00000 ( retract )

G00 X9.35721 Y21.57993 ( rapid move to begin. )
F300.00000
G01 Z-0.05000
G04 P0 ( dwell for no time -- G64 should not smooth over this point )
F600.00000
X9.35721 Y21.57993
X11.40849 Y21.57993
X11.55853 Y21.64206
X11.67326 Y21.75681
X11.73544 Y21.90688
X11.73544 Y23.95818
X11.70968 Y23.98394
X11.42744 Y23.98394
X11.42744 Y21.98795
X11.39813 Y21.91726
X11.32744 Y21.88795
X9.33146 Y21.88795
X9.33146 Y21.60568
X9.35721 Y21.57993
G04 P0 ( dwell for no time -- G64 should not smooth over this point )
G00 Z2.00000 ( retract )

G00 X8.59765 Y21.57993 ( rapid move to begin. )
F300.00000
G01 Z-0.05000
G04 P0 ( dwell for no time -- G64 should not smooth over this point )
F600.00000
X8.59765 Y21.57993
X8.62346 Y21.60573
X8.62346 Y21.88795
X6.62747 Y21.88795
X6.55676 Y21.91726
X6.52747 Y21.98795
X6.52747 Y23.98394
X6.24515 Y23.98394
X6.21945 Y23.95823
X6.21945 Y21.90680
X6.28153 Y21.75686
X6.39628 Y21.64211
X6.54632 Y21.57993
X8.59765 Y21.57993
G04 P0 ( dwell for no time -- G64 should not smooth over this point )
G00 Z2.00000 ( retract )

G00 X11.42744 Y17.83465 ( rapid move to begin. )
F300.00000
G01 Z-0.05000
G04 P0 ( dwell for no time -- G64 should not smooth over this point )
F600.00000
X11.42744 Y17.83465
X11.42744 Y13.86795
X11.39813 Y13.79727
X11.32744 Y13.76795
X6.62747 Y13.76795
X6.55676 Y13.79727
X6.52747 Y13.86795
X6.52747 Y18.56792
X6.55676 Y18.63863
X6.62747 Y18.66792
X11.12940 Y18.66792
X14.63990 Y22.17774
X14.75354 Y22.25366
X14.84717 Y22.28208
X15.41549 Y22.28828
X15.41740 Y22.43781
X15.44049 Y22.48376
X15.44049 Y23.49283
X15.41549 Y23.55831
X15.41549 Y24.61830
X15.44049 Y24.68378
X15.44049 Y25.57989
X14.72858 Y26.29180
X13.85804 Y26.29180
X13.80247 Y26.30867
X13.77488 Y26.33625
X13.75804 Y26.39180
X13.75995 Y28.01133
X13.78733 Y28.06251
X13.83851 Y28.08990
X14.45652 Y28.09180
X14.45652 Y29.65205
X14.48367 Y29.79594
X14.56035 Y29.91750
X14.56035 Y31.15583
X14.57719 Y31.21140
X14.62207 Y31.24823
X14.66035 Y31.25583
X16.39858 Y31.24823
X16.44346 Y31.21140
X16.46032 Y31.15583
X16.45270 Y29.41760
X16.41587 Y29.37272
X16.36032 Y29.35586
X15.25651 Y29.35586
X15.25651 Y28.09180
X15.87754 Y28.08990
X15.92873 Y28.06251
X15.95611 Y28.01133
X15.95804 Y26.39180
X15.92873 Y26.32112
X15.85976 Y26.29198
X16.16718 Y25.97575
X16.23040 Y25.83321
X16.24049 Y24.68378
X16.26355 Y24.63783
X16.26548 Y24.48830
X17.31549 Y24.48830
X17.32308 Y24.65658
X17.35991 Y24.70146
X17.39596 Y24.71639
X18.10373 Y24.71071
X18.14861 Y24.67388
X18.16548 Y24.61830
X18.15786 Y23.52005
X18.12103 Y23.47517
X18.06548 Y23.45831
X17.41549 Y23.45831
X17.35991 Y23.47517
X17.32308 Y23.52005
X17.31549 Y23.68830
X16.26548 Y23.68830
X16.26355 Y23.53880
X16.24049 Y23.49288
X16.24049 Y22.48376
X16.26548 Y22.41828
X16.26548 Y21.35829
X16.23617 Y21.28760
X16.16548 Y21.25829
X15.49596 Y21.26022
X15.45992 Y21.27515
X15.42309 Y21.32003
X15.41549 Y21.48828
X15.08110 Y21.48828
X11.42744 Y17.83465
G04 P0 ( dwell for no time -- G64 should not smooth over this point )
G00 Z2.00000 ( retract )

G00 X16.02286 Y18.67084 ( rapid move to begin. )
F300.00000
G01 Z-0.05000
G04 P0 ( dwell for no time -- G64 should not smooth over this point )
F600.00000
X16.02286 Y18.67084
X17.35062 Y19.99857
X17.34048 Y21.29281
X17.31549 Y21.35829
X17.31549 Y22.41828
X17.33233 Y22.47385
X17.37721 Y22.51068
X17.41549 Y22.51828
X18.06548 Y22.51828
X18.12103 Y22.50144
X18.14861 Y22.47385
X18.16548 Y22.41828
X18.16548 Y21.35829
X18.14048 Y21.29286
X18.15062 Y20.74818
X18.14051 Y19.74528
X18.08823 Y19.61910
X18.03342 Y19.55006
X16.58859 Y18.10526
X16.58097 Y15.33259
X16.54414 Y15.28771
X16.48859 Y15.27085
X14.45032 Y15.27847
X14.40544 Y15.31530
X14.38860 Y15.37085
X14.39619 Y18.60912
X14.43302 Y18.65400
X14.48860 Y18.67084
X16.02286 Y18.67084
G04 P0 ( dwell for no time -- G64 should not smooth over this point )
G00 Z2.00000 ( retract )

G00 X16.63838 Y14.98261 ( rapid move to begin. )
F300.00000
G01 Z-0.05000
G04 P0 ( dwell for no time -- G64 should not smooth over this point )
F600.00000
X16.63838 Y14.98261
X16.77851 Y15.07278
X16.86378 Y15.16678
X16.94150 Y15.19879
X17.00063 Y15.20295
X17.11267 Y15.16602
X17.18892 Y15.08202
X17.32677 Y14.98784
X17.51153 Y14.95043
X18.81310 Y14.94606
X18.89489 Y14.91220
X19.05051 Y14.80821
X19.45704 Y14.72734
X21.47281 Y14.72383
X21.59384 Y14.66089
X21.65361 Y14.55411
X21.66029 Y13.91982
X21.69247 Y13.74867
X21.78266 Y13.60852
X21.91896 Y13.51540
X22.10362 Y13.47799
X25.40737 Y13.47753
X25.52236 Y13.44067
X25.89586 Y13.18370
X26.30237 Y13.10280
X27.67397 Y13.10280
X27.76970 Y13.08134
X27.84689 Y13.02119
X27.88364 Y12.96272
X27.90091 Y12.87334
X27.89421 Y12.74698
X27.84689 Y12.65536
X25.93686 Y10.74264
X25.70658 Y10.39801
X25.62576 Y9.99179
X25.62576 Y6.89421
X25.70653 Y6.48801
X25.93681 Y6.14338
X26.92545 Y5.15474
X26.98758 Y5.03856
X26.99192 Y1.43303
X27.02411 Y1.26201
X27.11428 Y1.12185
X27.27353 Y1.01078
X27.34417 Y0.91179
X27.34717 Y0.77169
X27.31877 Y0.70898
X27.26022 Y0.64964
X27.13056 Y0.60882
X6.28998 Y0.60882
X6.22140 Y0.62058
X6.14790 Y0.66021
X6.08371 Y0.74169
X6.06298 Y0.83829
X6.07546 Y0.90669
X6.10596 Y0.96872
X6.15168 Y1.01449
X6.30233 Y1.11370
X6.39542 Y1.24997
X6.43283 Y1.43463
X6.43283 Y6.59050
X6.40065 Y6.76159
X6.31048 Y6.90175
X6.17421 Y6.99484
X5.98978 Y7.03220
X1.03269 Y7.03220
X0.82390 Y6.99959
X0.71268 Y7.03535
X0.62584 Y7.13965
X0.60879 Y7.22603
X0.61123 Y16.60818
X1.82936 Y22.74213
X1.86325 Y22.82394
X2.47663 Y23.74192
X2.53927 Y23.80456
X2.62113 Y23.83847
X2.71928 Y23.83603
X2.82596 Y23.77626
X2.87518 Y23.70250
X2.93165 Y23.56577
X3.32738 Y23.16936
X3.84478 Y22.95455
X4.40477 Y22.95402
X4.92252 Y23.16791
X5.31894 Y23.56364
X5.53378 Y24.08106
X5.53428 Y24.64098
X5.32039 Y25.15879
X4.92466 Y25.55520
X4.40726 Y25.77001
X4.22187 Y25.77309
X4.13027 Y25.80852
X4.06774 Y25.87116
X4.03388 Y25.95299
X4.03391 Y26.04151
X4.06784 Y26.12335
X5.31689 Y27.98479
X10.49958 Y31.45009
X16.60645 Y32.67505
X16.67556 Y32.67696
X22.79089 Y31.45659
X27.99705 Y27.96970
X29.19278 Y26.18454
X29.22568 Y26.10735
X29.23060 Y26.04852
X29.19540 Y25.93631
X29.16096 Y25.89437
X29.09078 Y25.84857
X29.00388 Y25.83138
X28.85611 Y25.83151
X28.33835 Y25.61761
X27.94194 Y25.22188
X27.72713 Y24.70448
X27.72659 Y24.14449
X27.94049 Y23.62673
X28.33622 Y23.23032
X28.85362 Y23.01551
X29.41361 Y23.01498
X29.93136 Y23.22887
X30.32783 Y23.62465
X30.38569 Y23.76397
X30.44218 Y23.84411
X30.55112 Y23.89958
X30.63964 Y23.89956
X30.72143 Y23.86567
X30.78407 Y23.80304
X31.43827 Y22.82397
X31.47215 Y22.74210
X32.68038 Y16.63340
X32.67075 Y16.57999
X32.62994 Y16.50168
X32.57959 Y16.45423
X32.49755 Y16.42045
X32.30886 Y16.44097
X31.55244 Y16.44097
X31.38158 Y16.40884
X31.24145 Y16.31867
X31.14833 Y16.18238
X31.11097 Y15.99795
X31.11097 Y15.04161
X31.14310 Y14.87077
X31.23324 Y14.73066
X31.36961 Y14.63750
X31.55422 Y14.60008
X32.31084 Y14.60008
X32.50207 Y14.62221
X32.60797 Y14.57397
X32.65491 Y14.52388
X32.68843 Y14.44248
X32.69275 Y9.34081
X32.67716 Y9.25831
X32.59549 Y9.15458
X32.48452 Y9.11566
X32.30964 Y9.14099
X31.55247 Y9.14099
X31.38158 Y9.10883
X31.24142 Y9.01866
X31.14833 Y8.88239
X31.11097 Y8.69796
X31.11097 Y7.74163
X31.14310 Y7.57076
X31.29385 Y7.33992
X31.30873 Y7.25791
X31.29108 Y7.17142
X31.21531 Y7.07599
X31.16375 Y7.04762
X31.08178 Y7.03220
X30.55511 Y7.03416
X30.48742 Y7.04968
X30.41361 Y7.09931
X30.36123 Y7.18285
X30.35039 Y7.28582
X30.38727 Y7.38727
X30.50441 Y7.55880
X30.54185 Y7.74345
X30.54185 Y8.69918
X30.50965 Y8.87035
X30.41902 Y9.01122
X30.30289 Y9.09557
X30.25514 Y9.16860
X30.23855 Y9.25823
X30.25910 Y9.43319
X30.33495 Y9.52928
X30.43444 Y9.57040
X30.53713 Y9.56164
X30.65996 Y9.51272
X31.00119 Y9.51239
X31.31673 Y9.64274
X31.55831 Y9.88389
X31.68922 Y10.19920
X31.68955 Y10.54038
X31.55920 Y10.85592
X31.31805 Y11.09750
X31.00274 Y11.22839
X30.66154 Y11.22874
X30.34602 Y11.09839
X30.10444 Y10.85724
X29.95971 Y10.51368
X29.91973 Y10.45739
X29.82743 Y10.40258
X29.75900 Y10.39100
X28.93988 Y10.39539
X28.85821 Y10.42925
X28.79555 Y10.49191
X28.76169 Y10.57373
X28.76086 Y10.65742
X28.77658 Y10.70934
X28.82403 Y10.77873
X29.40980 Y11.35828
X29.49149 Y11.39206
X29.78049 Y11.44952
X30.10609 Y11.66707
X30.32364 Y11.99267
X30.39659 Y12.34931
X30.42489 Y12.41251
X30.48364 Y12.47230
X30.53162 Y12.49788
X30.61407 Y12.51319
X31.00126 Y12.51238
X31.31673 Y12.64273
X31.55831 Y12.88388
X31.68922 Y13.19920
X31.68955 Y13.54037
X31.55920 Y13.85591
X31.31805 Y14.09749
X31.00274 Y14.22840
X30.66159 Y14.22879
X30.55877 Y14.19881
X30.49024 Y14.20234
X30.38608 Y14.25685
X30.33002 Y14.33618
X30.29583 Y14.48695
X30.29992 Y14.57760
X30.34879 Y14.66996
X30.41018 Y14.72076
X30.50444 Y14.85873
X30.54185 Y15.04339
X30.54185 Y15.99919
X30.50965 Y16.17036
X30.41948 Y16.31052
X30.28321 Y16.40361
X30.09878 Y16.44097
X29.34244 Y16.44097
X29.17157 Y16.40884
X29.03144 Y16.31867
X28.93833 Y16.18238
X28.90091 Y15.99767
X28.89654 Y15.30140
X28.84104 Y15.19261
X28.76083 Y15.13612
X28.67396 Y15.11883
X27.42825 Y15.11883
X27.34133 Y15.13615
X27.26769 Y15.18535
X27.21849 Y15.25901
X27.20125 Y15.34583
X27.20125 Y18.57714
X27.16909 Y18.74821
X27.07889 Y18.88836
X26.94260 Y18.98148
X26.75817 Y19.01884
X22.10184 Y19.01884
X21.93100 Y18.98671
X21.79089 Y18.89657
X21.69770 Y18.76020
X21.66036 Y18.57587
X21.66036 Y16.97033
X21.64482 Y16.88804
X21.60964 Y16.82911
X21.52910 Y16.76485
X21.43336 Y16.74333
X20.13603 Y16.74333
X20.04911 Y16.76066
X19.96306 Y16.82500
X19.92826 Y16.87905
X19.91147 Y16.94544
X19.90906 Y18.54950
X19.87685 Y18.72067
X19.78668 Y18.86083
X19.65041 Y18.95392
X19.46598 Y18.99129
X18.42334 Y18.99322
X18.35595 Y19.00861
X18.28587 Y19.05443
X18.22128 Y19.16926
X18.23296 Y19.30480
X18.40048 Y19.56324
X18.45862 Y19.85534
X18.44848 Y21.17340
X18.48592 Y21.38056
X18.48592 Y22.39702
X18.45377 Y22.56811
X18.36327 Y22.70873
X18.17962 Y22.84619
X18.14343 Y22.90532
X18.12725 Y22.99273
X18.14587 Y23.07959
X18.18366 Y23.13768
X18.35498 Y23.25960
X18.44851 Y23.39656
X18.48592 Y23.58117
X18.48592 Y24.59701
X18.45377 Y24.76811
X18.36360 Y24.90822
X18.22722 Y25.00138
X18.04284 Y25.03875
X17.43655 Y25.03875
X17.26568 Y25.00659
X17.12408 Y24.91548
X17.04442 Y24.83120
X16.96743 Y24.80060
X16.73116 Y24.80070
X16.64935 Y24.83458
X16.58953 Y24.89320
X16.54849 Y25.02330
X16.54849 Y25.72315
X16.49050 Y26.01479
X16.31671 Y26.27486
X16.28283 Y26.35665
X16.27851 Y27.97041
X16.24630 Y28.14164
X16.15613 Y28.28177
X16.01984 Y28.37488
X15.72337 Y28.42386
X15.64613 Y28.46632
X15.58598 Y28.54351
X15.56642 Y28.61977
X15.56899 Y28.85334
X15.60274 Y28.93452
X15.66137 Y28.99434
X15.79152 Y29.03541
X16.33899 Y29.03541
X16.51003 Y29.06757
X16.65019 Y29.15779
X16.74338 Y29.29416
X16.76327 Y29.38227
X16.80541 Y29.46172
X16.85735 Y29.50930
X16.94155 Y29.54194
X17.02689 Y29.54019
X17.08361 Y29.51976
X17.30581 Y29.29721
X17.69634 Y29.12228
X17.69634 Y29.42583
X17.49964 Y29.53234
X17.35519 Y29.65903
X17.24991 Y29.79502
X17.15646 Y29.98557
X17.11333 Y30.15207
X17.10157 Y30.34382
X17.13370 Y30.55359
X17.19342 Y30.71488
X17.29334 Y30.87902
X17.43954 Y31.03287
X17.58069 Y31.13111
X17.69634 Y31.18285
X17.69634 Y31.48943
X17.30589 Y31.31460
X17.11889 Y31.11476
X17.04231 Y31.07696
X16.97719 Y31.06871
X16.88864 Y31.08852
X16.81496 Y31.14153
X16.76797 Y31.21918
X16.74859 Y31.30564
X16.65839 Y31.44577
X16.52204 Y31.53896
X16.33772 Y31.57630
X14.68136 Y31.57630
X14.51057 Y31.54419
X14.37041 Y31.45397
X14.27722 Y31.31763
X14.23988 Y31.13330
X14.23988 Y30.04008
X14.14849 Y29.62964
X14.13843 Y28.57626
X14.08860 Y28.48603
X14.00838 Y28.42954
X13.70823 Y28.38012
X13.56813 Y28.28997
X13.47496 Y28.15360
X13.43760 Y27.96925
X13.43760 Y26.41294
X13.46975 Y26.24205
X13.55992 Y26.10189
X13.69619 Y26.00880
X13.88085 Y25.97138
X14.51941 Y25.97138
X14.60622 Y25.95414
X14.67988 Y25.90491
X15.06596 Y25.51881
X15.11516 Y25.44520
X15.13249 Y25.35828
X15.13249 Y24.80319
X15.09505 Y24.59630
X15.09505 Y23.57886
X15.13249 Y23.35932
X15.13249 Y22.82130
X15.11519 Y22.73443
X15.06596 Y22.66082
X14.99263 Y22.61173
X14.64656 Y22.53855
X14.39896 Y22.37312
X11.08075 Y19.05489
X11.00715 Y19.00566
X10.92028 Y18.98836
X6.64848 Y18.98836
X6.47764 Y18.95623
X6.33753 Y18.86609
X6.24434 Y18.72972
X6.20700 Y18.54539
X6.20700 Y13.88901
X6.23911 Y13.71819
X6.32930 Y13.57804
X6.46560 Y13.48492
X6.65026 Y13.44751
X11.30610 Y13.44751
X11.47720 Y13.47966
X11.61730 Y13.56983
X11.71050 Y13.70621
X11.74789 Y13.89079
X11.74789 Y17.62540
X11.78108 Y17.74313
X15.04730 Y21.01262
X15.12979 Y21.04653
X15.21905 Y21.04599
X15.35370 Y20.97528
X15.53830 Y20.93787
X16.14501 Y20.93787
X16.30302 Y20.96415
X16.39050 Y20.95029
X16.39050 Y21.29281
X16.36550 Y21.35829
X16.37310 Y22.45656
X16.40993 Y22.50144
X16.46550 Y22.51828
X17.11549 Y22.51828
X17.18618 Y22.48899
X17.21549 Y22.41828
X17.21549 Y21.35829
X17.19050 Y21.29286
X17.19050 Y20.75829
X17.15583 Y20.59639
X17.04259 Y20.44478
X17.04066 Y20.20061
X17.00149 Y20.09004
X15.95499 Y19.04201
X15.90950 Y19.01280
X15.81377 Y18.99129
X14.50963 Y18.99129
X14.33879 Y18.95915
X14.19863 Y18.86898
X14.10554 Y18.73271
X14.06818 Y18.54828
X14.06818 Y15.39193
X14.10031 Y15.22109
X14.19048 Y15.08093
X14.32675 Y14.98784
X14.51141 Y14.95043
X16.46726 Y14.95043
X16.63838 Y14.98261
G04 P0 ( dwell for no time -- G64 should not smooth over this point )
G00 Z2.00000 ( retract )

G00 X16.55842 Y6.61176 ( rapid move to begin. )
F300.00000
G01 Z-0.05000
G04 P0 ( dwell for no time -- G64 should not smooth over this point )
F600.00000
X16.55842 Y6.61176
X16.55842 Y6.89403
X16.53266 Y6.91978
X14.33122 Y6.91978
X14.18123 Y6.85768
X14.06652 Y6.74297
X14.00440 Y6.59304
X14.00440 Y4.39152
X14.03015 Y4.36576
X14.31242 Y4.36576
X14.31242 Y6.51176
X14.34171 Y6.58247
X14.41242 Y6.61176
X16.55842 Y6.61176
G04 P0 ( dwell for no time -- G64 should not smooth over this point )
G00 Z2.00000 ( retract )

G00 X19.51241 Y4.36576 ( rapid move to begin. )
F300.00000
G01 Z-0.05000
G04 P0 ( dwell for no time -- G64 should not smooth over this point )
F600.00000
X19.51241 Y4.36576
X19.79461 Y4.36576
X19.82041 Y4.39157
X19.82041 Y6.59286
X19.75828 Y6.74292
X19.64355 Y6.85765
X19.49359 Y6.91978
X17.29212 Y6.91978
X17.26642 Y6.89408
X17.26642 Y6.61176
X19.41241 Y6.61176
X19.48310 Y6.58247
X19.51241 Y6.51176
X19.51241 Y4.36576
G04 P0 ( dwell for no time -- G64 should not smooth over this point )
G00 Z2.00000 ( retract )

G00 X17.29217 Y1.10377 ( rapid move to begin. )
F300.00000
G01 Z-0.05000
G04 P0 ( dwell for no time -- G64 should not smooth over this point )
F600.00000
X17.29217 Y1.10377
X19.49344 Y1.10377
X19.64353 Y1.16592
X19.75823 Y1.28063
X19.82041 Y1.43069
X19.82041 Y3.63201
X19.79466 Y3.65776
X19.51241 Y3.65776
X19.51241 Y1.51177
X19.48310 Y1.44108
X19.41241 Y1.41177
X17.26642 Y1.41177
X17.26642 Y1.12952
X17.29217 Y1.10377
G04 P0 ( dwell for no time -- G64 should not smooth over this point )
G00 Z2.00000 ( retract )

G00 X16.55842 Y1.41177 ( rapid move to begin. )
F300.00000
G01 Z-0.05000
G04 P0 ( dwell for no time -- G64 should not smooth over this point )
F600.00000
X16.55842 Y1.41177
X14.41242 Y1.41177
X14.34171 Y1.44108
X14.31242 Y1.51177
X14.31242 Y3.65776
X14.03010 Y3.65776
X14.00440 Y3.63206
X14.00440 Y1.43061
X14.06647 Y1.28068
X14.18121 Y1.16595
X14.33129 Y1.10377
X16.53261 Y1.10377
X16.55842 Y1.12957
X16.55842 Y1.41177
G04 P0 ( dwell for no time -- G64 should not smooth over this point )
G00 Z2.00000 ( retract )

G00 X27.78395 Y6.71176 ( rapid move to begin. )
F300.00000
G01 Z-0.05000
G04 P0 ( dwell for no time -- G64 should not smooth over this point )
F600.00000
X27.78395 Y6.71176
X32.41241 Y6.71176
X32.48310 Y6.68247
X32.51241 Y6.61176
X32.51241 Y1.41177
X32.48310 Y1.34108
X32.41241 Y1.31177
X27.41242 Y1.31177
X27.34171 Y1.34108
X27.31242 Y1.41177
X27.31242 Y5.20338
X26.13216 Y6.38430
X26.04664 Y6.49154
X25.99119 Y6.59527
X25.94956 Y6.72593
X25.93376 Y6.87198
X25.93376 Y10.01394
X25.94956 Y10.16006
X25.99122 Y10.29069
X26.04666 Y10.39443
X26.13876 Y10.50893
X28.22141 Y12.59158
X28.22141 Y12.97052
X28.22901 Y13.00880
X28.26584 Y13.05368
X28.32141 Y13.07052
X28.99652 Y13.07669
X29.85964 Y13.06293
X29.91376 Y13.00880
X29.92138 Y12.83910
X29.99702 Y12.73547
X30.05847 Y12.60280
X30.09265 Y12.44990
X30.09321 Y12.31398
X30.06492 Y12.17052
X30.00271 Y12.02671
X29.92326 Y11.91645
X29.80795 Y11.81040
X29.67142 Y11.73349
X29.53172 Y11.69039
X29.28641 Y11.67670
X27.33376 Y9.72404
X27.33376 Y7.16195
X27.78395 Y6.71176
G04 P0 ( dwell for no time -- G64 should not smooth over this point )
G00 Z2.00000 ( retract )

G00 X29.22141 Y7.72054 ( rapid move to begin. )
F300.00000
G01 Z-0.05000
G04 P0 ( dwell for no time -- G64 should not smooth over this point )
F600.00000
X29.22141 Y7.72054
X29.22141 Y8.72054
X29.25070 Y8.79126
X29.32141 Y8.82054
X30.12141 Y8.82054
X30.19210 Y8.79126
X30.22141 Y8.72054
X30.22141 Y7.72054
X30.19210 Y7.64986
X30.12141 Y7.62054
X29.32141 Y7.62054
X29.25070 Y7.64986
X29.22141 Y7.72054
G04 P0 ( dwell for no time -- G64 should not smooth over this point )
G00 Z2.00000 ( retract )

G00 X28.22141 Y9.27055 ( rapid move to begin. )
F300.00000
G01 Z-0.05000
G04 P0 ( dwell for no time -- G64 should not smooth over this point )
F600.00000
X28.22141 Y9.27055
X28.22141 Y9.97053
X28.23825 Y10.02610
X28.28313 Y10.06293
X29.82138 Y10.07053
X29.87693 Y10.05369
X29.91376 Y10.00880
X29.92138 Y9.27055
X29.90452 Y9.21500
X29.85964 Y9.17817
X28.32141 Y9.17055
X28.25070 Y9.19987
X28.22141 Y9.27055
G04 P0 ( dwell for no time -- G64 should not smooth over this point )
G00 Z2.00000 ( retract )

G00 X31.43141 Y7.72054 ( rapid move to begin. )
F300.00000
G01 Z-0.05000
G04 P0 ( dwell for no time -- G64 should not smooth over this point )
F600.00000
X31.43141 Y7.72054
X31.43141 Y8.72054
X31.46070 Y8.79126
X31.53141 Y8.82054
X32.33141 Y8.82054
X32.40210 Y8.79126
X32.43141 Y8.72054
X32.43141 Y7.72054
X32.40210 Y7.64986
X32.33141 Y7.62054
X31.53141 Y7.62054
X31.46070 Y7.64986
X31.43141 Y7.72054
G04 P0 ( dwell for no time -- G64 should not smooth over this point )
G00 Z2.00000 ( retract )

G00 X31.43141 Y15.02053 ( rapid move to begin. )
F300.00000
G01 Z-0.05000
G04 P0 ( dwell for no time -- G64 should not smooth over this point )
F600.00000
X31.43141 Y15.02053
X31.43141 Y16.02053
X31.46070 Y16.09124
X31.53141 Y16.12053
X32.33141 Y16.12053
X32.40210 Y16.09124
X32.43141 Y16.02053
X32.43141 Y15.02053
X32.40210 Y14.94984
X32.33141 Y14.92053
X31.53141 Y14.92053
X31.46070 Y14.94984
X31.43141 Y15.02053
G04 P0 ( dwell for no time -- G64 should not smooth over this point )
G00 Z2.00000 ( retract )

G00 X29.22141 Y15.02053 ( rapid move to begin. )
F300.00000
G01 Z-0.05000
G04 P0 ( dwell for no time -- G64 should not smooth over this point )
F600.00000
X29.22141 Y15.02053
X29.22141 Y16.02053
X29.25070 Y16.09124
X29.32141 Y16.12053
X30.12141 Y16.12053
X30.19210 Y16.09124
X30.22141 Y16.02053
X30.22141 Y15.02053
X30.19210 Y14.94984
X30.12141 Y14.92053
X29.32141 Y14.92053
X29.25070 Y14.94984
X29.22141 Y15.02053
G04 P0 ( dwell for no time -- G64 should not smooth over this point )
G00 Z2.00000 ( retract )

G00 X25.65634 Y13.79843 ( rapid move to begin. )
F300.00000
G01 Z-0.05000
G04 P0 ( dwell for no time -- G64 should not smooth over this point )
F600.00000
X25.65634 Y13.79843
X22.06130 Y13.80036
X21.99767 Y13.84288
X21.98083 Y13.89843
X21.98083 Y15.03534
X19.42476 Y15.03582
X19.28843 Y15.05119
X19.15778 Y15.09284
X19.03774 Y15.15919
X18.90911 Y15.27085
X17.48862 Y15.27085
X17.43304 Y15.28771
X17.39621 Y15.33259
X17.38862 Y15.37085
X17.38862 Y18.57084
X17.40546 Y18.62641
X17.45034 Y18.66324
X17.48862 Y18.67084
X19.48861 Y18.67084
X19.55930 Y18.64155
X19.58861 Y18.57084
X19.58861 Y16.57122
X19.72450 Y16.43533
X21.98083 Y16.43533
X21.98083 Y18.59840
X21.99767 Y18.65397
X22.04256 Y18.69080
X26.78080 Y18.69840
X26.83635 Y18.68156
X26.86393 Y18.65397
X26.88080 Y18.59840
X26.88080 Y14.81080
X29.36667 Y14.81080
X29.52230 Y14.79282
X29.65133 Y14.75030
X29.77808 Y14.67715
X29.88684 Y14.57923
X29.96718 Y14.46958
X30.03238 Y14.32716
X30.06281 Y14.18401
X30.06337 Y14.04809
X30.03507 Y13.90463
X29.96715 Y13.75203
X29.87945 Y13.63504
X29.77810 Y13.54451
X29.64158 Y13.46760
X29.50188 Y13.42449
X29.36667 Y13.41080
X26.26945 Y13.41136
X26.14468 Y13.42449
X26.00498 Y13.46760
X25.87725 Y13.53882
X25.75314 Y13.65055
X25.65634 Y13.79843
G04 P0 ( dwell for no time -- G64 should not smooth over this point )
G00 Z2.00000 ( retract )

G00 X24.81057 Y21.61041 ( rapid move to begin. )
F300.00000
G01 Z-0.05000
G04 P0 ( dwell for no time -- G64 should not smooth over this point )
F600.00000
X24.81057 Y21.61041
X26.86185 Y21.61041
X27.01189 Y21.67254
X27.12662 Y21.78729
X27.18880 Y21.93736
X27.18880 Y23.98866
X27.16304 Y24.01442
X26.88080 Y24.01442
X26.88080 Y22.01843
X26.85149 Y21.94774
X26.78080 Y21.91843
X24.78482 Y21.91843
X24.78482 Y21.63616
X24.81057 Y21.61041
G04 P0 ( dwell for no time -- G64 should not smooth over this point )
G00 Z2.00000 ( retract )

G00 X21.99968 Y21.61041 ( rapid move to begin. )
F300.00000
G01 Z-0.05000
G04 P0 ( dwell for no time -- G64 should not smooth over this point )
F600.00000
X21.99968 Y21.61041
X24.05101 Y21.61041
X24.07682 Y21.63621
X24.07682 Y21.91843
X22.08083 Y21.91843
X22.01012 Y21.94774
X21.98083 Y22.01843
X21.98083 Y24.01442
X21.69851 Y24.01442
X21.67281 Y23.98871
X21.67281 Y21.93728
X21.73489 Y21.78734
X21.84964 Y21.67259
X21.99968 Y21.61041
G04 P0 ( dwell for no time -- G64 should not smooth over this point )
G00 Z2.00000 ( retract )

G00 X21.98083 Y24.72241 ( rapid move to begin. )
F300.00000
G01 Z-0.05000
G04 P0 ( dwell for no time -- G64 should not smooth over this point )
F600.00000
X21.98083 Y24.72241
X21.98083 Y26.71840
X22.01012 Y26.78911
X22.08083 Y26.81840
X24.07682 Y26.81840
X24.07682 Y27.10067
X24.05106 Y27.12642
X21.99961 Y27.12642
X21.84967 Y27.06435
X21.73494 Y26.94959
X21.67281 Y26.79965
X21.67281 Y24.74817
X21.69856 Y24.72241
X21.98083 Y24.72241
G04 P0 ( dwell for no time -- G64 should not smooth over this point )
G00 Z2.00000 ( retract )

G00 X20.26606 Y26.31075 ( rapid move to begin. )
F300.00000
G01 Z-0.05000
G04 P0 ( dwell for no time -- G64 should not smooth over this point )
F600.00000
X20.26606 Y26.31075
X20.26606 Y26.81205
X20.24030 Y26.83780
X19.95805 Y26.83780
X19.95805 Y26.39180
X19.92874 Y26.32112
X19.85806 Y26.29180
X19.21206 Y26.29180
X19.21206 Y26.00956
X19.23781 Y25.98380
X19.93908 Y25.98380
X20.08917 Y26.04596
X20.20388 Y26.16066
X20.26606 Y26.31075
G04 P0 ( dwell for no time -- G64 should not smooth over this point )
G00 Z2.00000 ( retract )

G00 X19.23776 Y28.39983 ( rapid move to begin. )
F300.00000
G01 Z-0.05000
G04 P0 ( dwell for no time -- G64 should not smooth over this point )
F600.00000
X19.23776 Y28.39983
X19.21206 Y28.37412
X19.21206 Y28.09180
X19.89631 Y28.08421
X19.94119 Y28.04738
X19.95612 Y28.01133
X19.95805 Y27.54580
X20.24025 Y27.54580
X20.26606 Y27.57161
X20.26606 Y28.07290
X20.20390 Y28.22299
X20.08920 Y28.33770
X19.93923 Y28.39983
X19.23776 Y28.39983
G04 P0 ( dwell for no time -- G64 should not smooth over this point )
G00 Z2.00000 ( retract )

G00 X18.41282 Y29.11783 ( rapid move to begin. )
F300.00000
G01 Z-0.05000
G04 P0 ( dwell for no time -- G64 should not smooth over this point )
F600.00000
X18.41282 Y29.11783
X18.79433 Y29.29695
X19.12735 Y29.66241
X19.24129 Y29.93736
X19.23365 Y29.95184
X18.92763 Y29.95184
X18.80731 Y29.73269
X18.67645 Y29.59203
X18.51996 Y29.48060
X18.40434 Y29.42886
X18.41282 Y29.11783
G04 P0 ( dwell for no time -- G64 should not smooth over this point )
G00 Z2.00000 ( retract )

G00 X17.62687 Y28.33772 ( rapid move to begin. )
F300.00000
G01 Z-0.05000
G04 P0 ( dwell for no time -- G64 should not smooth over this point )
F600.00000
X17.62687 Y28.33772
X17.51216 Y28.22302
X17.45003 Y28.07306
X17.45003 Y27.57156
X17.47579 Y27.54580
X17.75806 Y27.54580
X17.75996 Y28.01133
X17.77490 Y28.04738
X17.81978 Y28.08421
X18.50406 Y28.09180
X18.50406 Y28.37407
X18.47830 Y28.39983
X17.77686 Y28.39983
X17.62687 Y28.33772
G04 P0 ( dwell for no time -- G64 should not smooth over this point )
G00 Z2.00000 ( retract )

G00 X17.45003 Y26.31068 ( rapid move to begin. )
F300.00000
G01 Z-0.05000
G04 P0 ( dwell for no time -- G64 should not smooth over this point )
F600.00000
X17.45003 Y26.31068
X17.51214 Y26.16069
X17.62684 Y26.04598
X17.77693 Y25.98380
X18.47825 Y25.98380
X18.50406 Y26.00961
X18.50406 Y26.29180
X17.85806 Y26.29180
X17.78735 Y26.32112
X17.75806 Y26.39180
X17.75806 Y26.83780
X17.47574 Y26.83780
X17.45003 Y26.81210
X17.45003 Y26.31068
G04 P0 ( dwell for no time -- G64 should not smooth over this point )
G00 Z2.00000 ( retract )

G00 X18.41287 Y31.49398 ( rapid move to begin. )
F300.00000
G01 Z-0.05000
G04 P0 ( dwell for no time -- G64 should not smooth over this point )
F600.00000
X18.41287 Y31.49398
X18.40434 Y31.18588
X18.58440 Y31.09093
X18.73151 Y30.96733
X18.85074 Y30.81669
X18.92991 Y30.65984
X19.23357 Y30.65984
X19.24124 Y30.67437
X19.12740 Y30.94930
X18.79438 Y31.31476
X18.41287 Y31.49398
G04 P0 ( dwell for no time -- G64 should not smooth over this point )
G00 Z2.00000 ( retract )

G00 X26.88080 Y24.72241 ( rapid move to begin. )
F300.00000
G01 Z-0.05000
G04 P0 ( dwell for no time -- G64 should not smooth over this point )
F600.00000
X26.88080 Y24.72241
X27.16299 Y24.72241
X27.18880 Y24.74822
X27.18880 Y26.79950
X27.12667 Y26.94954
X27.01191 Y27.06429
X26.86200 Y27.12642
X24.81052 Y27.12642
X24.78482 Y27.10072
X24.78482 Y26.81840
X26.78080 Y26.81840
X26.85149 Y26.78911
X26.88080 Y26.71840
X26.88080 Y24.72241
G04 P0 ( dwell for no time -- G64 should not smooth over this point )
G00 Z2.00000 ( retract )

G00 X30.23434 Y24.41276 ( rapid move to begin. )
F300.00000
G01 Z-0.05000
G04 P0 ( dwell for no time -- G64 should not smooth over this point )
F600.00000
X30.23434 Y24.41276
X30.21084 Y24.19453
X30.13977 Y23.97581
X30.02479 Y23.77665
X29.87830 Y23.61317
X29.68488 Y23.47060
X29.47477 Y23.37705
X29.26020 Y23.33090
X29.03038 Y23.32869
X28.79497 Y23.37705
X28.59423 Y23.46585
X28.40698 Y23.59918
X28.25159 Y23.76852
X28.12624 Y23.98559
X28.05730 Y24.20486
X28.03543 Y24.43367
X28.06165 Y24.66201
X28.13000 Y24.87062
X28.24501 Y25.06979
X28.39146 Y25.23326
X28.58486 Y25.37583
X28.79497 Y25.46938
X29.01991 Y25.51718
X29.23942 Y25.51771
X29.47477 Y25.46938
X29.67554 Y25.38058
X29.86278 Y25.24725
X30.01818 Y25.07791
X30.14353 Y24.86084
X30.21247 Y24.64157
X30.23434 Y24.41276
G04 P0 ( dwell for no time -- G64 should not smooth over this point )
G00 Z2.00000 ( retract )

G00 X0.91240 Y1.41177 ( rapid move to begin. )
F300.00000
G01 Z-0.05000
G04 P0 ( dwell for no time -- G64 should not smooth over this point )
F600.00000
X0.91240 Y1.41177
X0.91240 Y6.61176
X0.94168 Y6.68247
X1.01240 Y6.71176
X6.01239 Y6.71176
X6.08308 Y6.68247
X6.11239 Y6.61176
X6.11239 Y1.41177
X6.08308 Y1.34108
X6.01239 Y1.31177
X1.01240 Y1.31177
X0.94168 Y1.34108
X0.91240 Y1.41177

G04 P0 ( dwell for no time -- G64 should not smooth over this point )
G00 Z2.000 ( retract )

M5 ( Spindle off. )
M9 ( Coolant off. )
M2 ( Program end. )

