( pcb2gcode 1.3.2 )
( Software-independent Gcode )

G94 ( Millimeters per minute feed rate. )
G21 ( Units == Millimeters. )

G90 ( Absolute coordinates. )
S7000 ( RPM spindle speed. )
F600.00000 ( Feedrate. )

F600.00000 ( Feedrate. )
M3 ( Spindle on clockwise. )
G04 P0 ( dwell for no time -- G64 should not smooth over this point )
G00 Z2.00000 ( retract )

G00 X2.14968 Y0.12607 ( rapid move to begin. )
G01 Z-0.05000 F300.00000 ( plunge. )
G04 P0 ( dwell for no time -- G64 should not smooth over this point )
F600.00000
X2.14968 Y0.12607
X1.75581 Y0.16559
X1.37625 Y0.28076
X1.02606 Y0.46790
X0.72634 Y0.71263
X0.46764 Y1.02642
X0.27684 Y1.38538
X0.16544 Y1.75581
X0.12599 Y2.14999
X0.12601 Y9.09976
X0.12602 Y9.69976
X0.12604 Y16.64953
X0.48865 Y20.09154
X1.55954 Y23.38129
X3.28539 Y26.36783
X5.59405 Y28.93064
X8.38871 Y30.96109
X11.53948 Y32.36479
X14.92863 Y33.08516
X18.37810 Y33.08435
X21.75693 Y32.36614
X24.90841 Y30.96391
X27.70785 Y28.93104
X30.02225 Y26.35939
X31.74195 Y23.38132
X32.81371 Y20.08631
X33.17578 Y16.64679
X33.17578 Y2.15474
X33.13601 Y1.75594
X33.02084 Y1.37639
X32.83370 Y1.02620
X32.58902 Y0.72655
X32.27530 Y0.46785
X31.92529 Y0.28071
X31.54574 Y0.16557
X31.14683 Y0.12582
X16.94826 Y0.12594
X16.34826 Y0.12595
X2.14968 Y0.12607
G01 Z-0.10000 F300.00000 ( plunge. )
G04 P0 ( dwell for no time -- G64 should not smooth over this point )
F600.00000
X2.14968 Y0.12607
X1.75581 Y0.16559
X1.37625 Y0.28076
X1.02606 Y0.46790
X0.72634 Y0.71263
X0.46764 Y1.02642
X0.27684 Y1.38538
X0.16544 Y1.75581
X0.12599 Y2.14999
X0.12601 Y9.09976
X0.12602 Y9.69976
X0.12604 Y16.64953
X0.48865 Y20.09154
X1.55954 Y23.38129
X3.28539 Y26.36783
X5.59405 Y28.93064
X8.38871 Y30.96109
X11.53948 Y32.36479
X14.92863 Y33.08516
X18.37810 Y33.08435
X21.75693 Y32.36614
X24.90841 Y30.96391
X27.70785 Y28.93104
X30.02225 Y26.35939
X31.74195 Y23.38132
X32.81371 Y20.08631
X33.17578 Y16.64679
X33.17578 Y2.15474
X33.13601 Y1.75594
X33.02084 Y1.37639
X32.83370 Y1.02620
X32.58902 Y0.72655
X32.27530 Y0.46785
X31.92529 Y0.28071
X31.54574 Y0.16557
X31.14683 Y0.12582
X16.94826 Y0.12594
X16.34826 Y0.12595
X2.14968 Y0.12607
G01 Z-0.15000 F300.00000 ( plunge. )
G04 P0 ( dwell for no time -- G64 should not smooth over this point )
F600.00000
X2.14968 Y0.12607
X1.75581 Y0.16559
X1.37625 Y0.28076
X1.02606 Y0.46790
X0.72634 Y0.71263
X0.46764 Y1.02642
X0.27684 Y1.38538
X0.16544 Y1.75581
X0.12599 Y2.14999
X0.12601 Y9.09976
X0.12602 Y9.69976
X0.12604 Y16.64953
X0.48865 Y20.09154
X1.55954 Y23.38129
X3.28539 Y26.36783
X5.59405 Y28.93064
X8.38871 Y30.96109
X11.53948 Y32.36479
X14.92863 Y33.08516
X18.37810 Y33.08435
X21.75693 Y32.36614
X24.90841 Y30.96391
X27.70785 Y28.93104
X30.02225 Y26.35939
X31.74195 Y23.38132
X32.81371 Y20.08631
X33.17578 Y16.64679
X33.17578 Y2.15474
X33.13601 Y1.75594
X33.02084 Y1.37639
X32.83370 Y1.02620
X32.58902 Y0.72655
X32.27530 Y0.46785
X31.92529 Y0.28071
X31.54574 Y0.16557
X31.14683 Y0.12582
X16.94826 Y0.12594
X16.34826 Y0.12595
X2.14968 Y0.12607
G01 Z-0.20000 F300.00000 ( plunge. )
G04 P0 ( dwell for no time -- G64 should not smooth over this point )
F600.00000
X2.14968 Y0.12607
X1.75581 Y0.16559
X1.37625 Y0.28076
X1.02606 Y0.46790
X0.72634 Y0.71263
X0.46764 Y1.02642
X0.27684 Y1.38538
X0.16544 Y1.75581
X0.12599 Y2.14999
X0.12601 Y9.09976
X0.12602 Y9.69976
X0.12604 Y16.64953
X0.48865 Y20.09154
X1.55954 Y23.38129
X3.28539 Y26.36783
X5.59405 Y28.93064
X8.38871 Y30.96109
X11.53948 Y32.36479
X14.92863 Y33.08516
X18.37810 Y33.08435
X21.75693 Y32.36614
X24.90841 Y30.96391
X27.70785 Y28.93104
X30.02225 Y26.35939
X31.74195 Y23.38132
X32.81371 Y20.08631
X33.17578 Y16.64679
X33.17578 Y2.15474
X33.13601 Y1.75594
X33.02084 Y1.37639
X32.83370 Y1.02620
X32.58902 Y0.72655
X32.27530 Y0.46785
X31.92529 Y0.28071
X31.54574 Y0.16557
X31.14683 Y0.12582
X16.94826 Y0.12594
X16.34826 Y0.12595
X2.14968 Y0.12607
G01 Z-0.25000 F300.00000 ( plunge. )
G04 P0 ( dwell for no time -- G64 should not smooth over this point )
F600.00000
X2.14968 Y0.12607
X1.75581 Y0.16559
X1.37625 Y0.28076
X1.02606 Y0.46790
X0.72634 Y0.71263
X0.46764 Y1.02642
X0.27684 Y1.38538
X0.16544 Y1.75581
X0.12599 Y2.14999
X0.12601 Y9.09976
X0.12602 Y9.69976
X0.12604 Y16.64953
X0.48865 Y20.09154
X1.55954 Y23.38129
X3.28539 Y26.36783
X5.59405 Y28.93064
X8.38871 Y30.96109
X11.53948 Y32.36479
X14.92863 Y33.08516
X18.37810 Y33.08435
X21.75693 Y32.36614
X24.90841 Y30.96391
X27.70785 Y28.93104
X30.02225 Y26.35939
X31.74195 Y23.38132
X32.81371 Y20.08631
X33.17578 Y16.64679
X33.17578 Y2.15474
X33.13601 Y1.75594
X33.02084 Y1.37639
X32.83370 Y1.02620
X32.58902 Y0.72655
X32.27530 Y0.46785
X31.92529 Y0.28071
X31.54574 Y0.16557
X31.14683 Y0.12582
X16.94826 Y0.12594
X16.34826 Y0.12595
X2.14968 Y0.12607
G01 Z-0.30000 F300.00000 ( plunge. )
G04 P0 ( dwell for no time -- G64 should not smooth over this point )
F600.00000
X2.14968 Y0.12607
X1.75581 Y0.16559
X1.37625 Y0.28076
X1.02606 Y0.46790
X0.72634 Y0.71263
X0.46764 Y1.02642
X0.27684 Y1.38538
X0.16544 Y1.75581
X0.12599 Y2.14999
X0.12601 Y9.09976
X0.12602 Y9.69976
X0.12604 Y16.64953
X0.48865 Y20.09154
X1.55954 Y23.38129
X3.28539 Y26.36783
X5.59405 Y28.93064
X8.38871 Y30.96109
X11.53948 Y32.36479
X14.92863 Y33.08516
X18.37810 Y33.08435
X21.75693 Y32.36614
X24.90841 Y30.96391
X27.70785 Y28.93104
X30.02225 Y26.35939
X31.74195 Y23.38132
X32.81371 Y20.08631
X33.17578 Y16.64679
X33.17578 Y2.15474
X33.13601 Y1.75594
X33.02084 Y1.37639
X32.83370 Y1.02620
X32.58902 Y0.72655
X32.27530 Y0.46785
X31.92529 Y0.28071
X31.54574 Y0.16557
X31.14683 Y0.12582
X16.94826 Y0.12594
X16.34826 Y0.12595
X2.14968 Y0.12607
G01 Z-0.35000 F300.00000 ( plunge. )
G04 P0 ( dwell for no time -- G64 should not smooth over this point )
F600.00000
X2.14968 Y0.12607
X1.75581 Y0.16559
X1.37625 Y0.28076
X1.02606 Y0.46790
X0.72634 Y0.71263
X0.46764 Y1.02642
X0.27684 Y1.38538
X0.16544 Y1.75581
X0.12599 Y2.14999
X0.12601 Y9.09976
X0.12602 Y9.69976
X0.12604 Y16.64953
X0.48865 Y20.09154
X1.55954 Y23.38129
X3.28539 Y26.36783
X5.59405 Y28.93064
X8.38871 Y30.96109
X11.53948 Y32.36479
X14.92863 Y33.08516
X18.37810 Y33.08435
X21.75693 Y32.36614
X24.90841 Y30.96391
X27.70785 Y28.93104
X30.02225 Y26.35939
X31.74195 Y23.38132
X32.81371 Y20.08631
X33.17578 Y16.64679
X33.17578 Y2.15474
X33.13601 Y1.75594
X33.02084 Y1.37639
X32.83370 Y1.02620
X32.58902 Y0.72655
X32.27530 Y0.46785
X31.92529 Y0.28071
X31.54574 Y0.16557
X31.14683 Y0.12582
X16.94826 Y0.12594
X16.34826 Y0.12595
X2.14968 Y0.12607
G01 Z-0.40000 F300.00000 ( plunge. )
G04 P0 ( dwell for no time -- G64 should not smooth over this point )
F600.00000
X2.14968 Y0.12607
X1.75581 Y0.16559
X1.37625 Y0.28076
X1.02606 Y0.46790
X0.72634 Y0.71263
X0.46764 Y1.02642
X0.27684 Y1.38538
X0.16544 Y1.75581
X0.12599 Y2.14999
X0.12601 Y9.09976
X0.12602 Y9.69976
X0.12604 Y16.64953
X0.48865 Y20.09154
X1.55954 Y23.38129
X3.28539 Y26.36783
X5.59405 Y28.93064
X8.38871 Y30.96109
X11.53948 Y32.36479
X14.92863 Y33.08516
X18.37810 Y33.08435
X21.75693 Y32.36614
X24.90841 Y30.96391
X27.70785 Y28.93104
X30.02225 Y26.35939
X31.74195 Y23.38132
X32.81371 Y20.08631
X33.17578 Y16.64679
X33.17578 Y2.15474
X33.13601 Y1.75594
X33.02084 Y1.37639
X32.83370 Y1.02620
X32.58902 Y0.72655
X32.27530 Y0.46785
X31.92529 Y0.28071
X31.54574 Y0.16557
X31.14683 Y0.12582
X16.94826 Y0.12594
X16.34826 Y0.12595
X2.14968 Y0.12607
G01 Z-0.45000 F300.00000 ( plunge. )
G04 P0 ( dwell for no time -- G64 should not smooth over this point )
F600.00000
X2.14968 Y0.12607
X1.75581 Y0.16559
X1.37625 Y0.28076
X1.02606 Y0.46790
X0.72634 Y0.71263
X0.46764 Y1.02642
X0.27684 Y1.38538
X0.16544 Y1.75581
X0.12599 Y2.14999
X0.12601 Y9.09976
X0.12602 Y9.69976
X0.12604 Y16.64953
X0.48865 Y20.09154
X1.55954 Y23.38129
X3.28539 Y26.36783
X5.59405 Y28.93064
X8.38871 Y30.96109
X11.53948 Y32.36479
X14.92863 Y33.08516
X18.37810 Y33.08435
X21.75693 Y32.36614
X24.90841 Y30.96391
X27.70785 Y28.93104
X30.02225 Y26.35939
X31.74195 Y23.38132
X32.81371 Y20.08631
X33.17578 Y16.64679
X33.17578 Y2.15474
X33.13601 Y1.75594
X33.02084 Y1.37639
X32.83370 Y1.02620
X32.58902 Y0.72655
X32.27530 Y0.46785
X31.92529 Y0.28071
X31.54574 Y0.16557
X31.14683 Y0.12582
X16.94826 Y0.12594
X16.34826 Y0.12595
X2.14968 Y0.12607
G01 Z-0.50000 F300.00000 ( plunge. )
G04 P0 ( dwell for no time -- G64 should not smooth over this point )
F600.00000
X2.14968 Y0.12607
X1.75581 Y0.16559
X1.37625 Y0.28076
X1.02606 Y0.46790
X0.72634 Y0.71263
X0.46764 Y1.02642
X0.27684 Y1.38538
X0.16544 Y1.75581
X0.12599 Y2.14999
X0.12601 Y9.09976
X0.12602 Y9.69976
X0.12604 Y16.64953
X0.48865 Y20.09154
X1.55954 Y23.38129
X3.28539 Y26.36783
X5.59405 Y28.93064
X8.38871 Y30.96109
X11.53948 Y32.36479
X14.92863 Y33.08516
X18.37810 Y33.08435
X21.75693 Y32.36614
X24.90841 Y30.96391
X27.70785 Y28.93104
X30.02225 Y26.35939
X31.74195 Y23.38132
X32.81371 Y20.08631
X33.17578 Y16.64679
X33.17578 Y2.15474
X33.13601 Y1.75594
X33.02084 Y1.37639
X32.83370 Y1.02620
X32.58902 Y0.72655
X32.27530 Y0.46785
X31.92529 Y0.28071
X31.54574 Y0.16557
X31.14683 Y0.12582
X16.94826 Y0.12594
X16.34826 Y0.12595
X2.14968 Y0.12607
G01 Z-0.55000 F300.00000 ( plunge. )
G04 P0 ( dwell for no time -- G64 should not smooth over this point )
F600.00000
X2.14968 Y0.12607
X1.75581 Y0.16559
X1.37625 Y0.28076
X1.02606 Y0.46790
X0.72634 Y0.71263
X0.46764 Y1.02642
X0.27684 Y1.38538
X0.16544 Y1.75581
X0.12599 Y2.14999
X0.12601 Y9.09976
X0.12602 Y9.69976
X0.12604 Y16.64953
X0.48865 Y20.09154
X1.55954 Y23.38129
X3.28539 Y26.36783
X5.59405 Y28.93064
X8.38871 Y30.96109
X11.53948 Y32.36479
X14.92863 Y33.08516
X18.37810 Y33.08435
X21.75693 Y32.36614
X24.90841 Y30.96391
X27.70785 Y28.93104
X30.02225 Y26.35939
X31.74195 Y23.38132
X32.81371 Y20.08631
X33.17578 Y16.64679
X33.17578 Y2.15474
X33.13601 Y1.75594
X33.02084 Y1.37639
X32.83370 Y1.02620
X32.58902 Y0.72655
X32.27530 Y0.46785
X31.92529 Y0.28071
X31.54574 Y0.16557
X31.14683 Y0.12582
X16.94826 Y0.12594
X16.34826 Y0.12595
X2.14968 Y0.12607
G01 Z-0.60000 F300.00000 ( plunge. )
G04 P0 ( dwell for no time -- G64 should not smooth over this point )
F600.00000
X2.14968 Y0.12607
X1.75581 Y0.16559
X1.37625 Y0.28076
X1.02606 Y0.46790
X0.72634 Y0.71263
X0.46764 Y1.02642
X0.27684 Y1.38538
X0.16544 Y1.75581
X0.12599 Y2.14999
X0.12601 Y9.09976
X0.12602 Y9.69976
X0.12604 Y16.64953
X0.48865 Y20.09154
X1.55954 Y23.38129
X3.28539 Y26.36783
X5.59405 Y28.93064
X8.38871 Y30.96109
X11.53948 Y32.36479
X14.92863 Y33.08516
X18.37810 Y33.08435
X21.75693 Y32.36614
X24.90841 Y30.96391
X27.70785 Y28.93104
X30.02225 Y26.35939
X31.74195 Y23.38132
X32.81371 Y20.08631
X33.17578 Y16.64679
X33.17578 Y2.15474
X33.13601 Y1.75594
X33.02084 Y1.37639
X32.83370 Y1.02620
X32.58902 Y0.72655
X32.27530 Y0.46785
X31.92529 Y0.28071
X31.54574 Y0.16557
X31.14683 Y0.12582
X16.94826 Y0.12594
X16.34826 Y0.12595
X2.14968 Y0.12607
G01 Z-0.65000 F300.00000 ( plunge. )
G04 P0 ( dwell for no time -- G64 should not smooth over this point )
F600.00000
X2.14968 Y0.12607
X1.75581 Y0.16559
X1.37625 Y0.28076
X1.02606 Y0.46790
X0.72634 Y0.71263
X0.46764 Y1.02642
X0.27684 Y1.38538
X0.16544 Y1.75581
X0.12599 Y2.14999
X0.12601 Y9.09976
Z-0.60000
X0.12602 Y9.69976
Z-0.65000 F300.00000
F600.00000X0.12604 Y16.64953
X0.48865 Y20.09154
X1.55954 Y23.38129
X3.28539 Y26.36783
X5.59405 Y28.93064
X8.38871 Y30.96109
X11.53948 Y32.36479
X14.92863 Y33.08516
X18.37810 Y33.08435
X21.75693 Y32.36614
X24.90841 Y30.96391
X27.70785 Y28.93104
X30.02225 Y26.35939
X31.74195 Y23.38132
X32.81371 Y20.08631
X33.17578 Y16.64679
X33.17578 Y2.15474
X33.13601 Y1.75594
X33.02084 Y1.37639
X32.83370 Y1.02620
X32.58902 Y0.72655
X32.27530 Y0.46785
X31.92529 Y0.28071
X31.54574 Y0.16557
X31.14683 Y0.12582
X16.94826 Y0.12594
Z-0.60000
X16.34826 Y0.12595
Z-0.65000 F300.00000
F600.00000X2.14968 Y0.12607
G01 Z-0.70000 F300.00000 ( plunge. )
G04 P0 ( dwell for no time -- G64 should not smooth over this point )
F600.00000
X2.14968 Y0.12607
X1.75581 Y0.16559
X1.37625 Y0.28076
X1.02606 Y0.46790
X0.72634 Y0.71263
X0.46764 Y1.02642
X0.27684 Y1.38538
X0.16544 Y1.75581
X0.12599 Y2.14999
X0.12601 Y9.09976
Z-0.60000
X0.12602 Y9.69976
Z-0.70000 F300.00000
F600.00000X0.12604 Y16.64953
X0.48865 Y20.09154
X1.55954 Y23.38129
X3.28539 Y26.36783
X5.59405 Y28.93064
X8.38871 Y30.96109
X11.53948 Y32.36479
X14.92863 Y33.08516
X18.37810 Y33.08435
X21.75693 Y32.36614
X24.90841 Y30.96391
X27.70785 Y28.93104
X30.02225 Y26.35939
X31.74195 Y23.38132
X32.81371 Y20.08631
X33.17578 Y16.64679
X33.17578 Y2.15474
X33.13601 Y1.75594
X33.02084 Y1.37639
X32.83370 Y1.02620
X32.58902 Y0.72655
X32.27530 Y0.46785
X31.92529 Y0.28071
X31.54574 Y0.16557
X31.14683 Y0.12582
X16.94826 Y0.12594
Z-0.60000
X16.34826 Y0.12595
Z-0.70000 F300.00000
F600.00000X2.14968 Y0.12607
G01 Z-0.75000 F300.00000 ( plunge. )
G04 P0 ( dwell for no time -- G64 should not smooth over this point )
F600.00000
X2.14968 Y0.12607
X1.75581 Y0.16559
X1.37625 Y0.28076
X1.02606 Y0.46790
X0.72634 Y0.71263
X0.46764 Y1.02642
X0.27684 Y1.38538
X0.16544 Y1.75581
X0.12599 Y2.14999
X0.12601 Y9.09976
Z-0.60000
X0.12602 Y9.69976
Z-0.75000 F300.00000
F600.00000X0.12604 Y16.64953
X0.48865 Y20.09154
X1.55954 Y23.38129
X3.28539 Y26.36783
X5.59405 Y28.93064
X8.38871 Y30.96109
X11.53948 Y32.36479
X14.92863 Y33.08516
X18.37810 Y33.08435
X21.75693 Y32.36614
X24.90841 Y30.96391
X27.70785 Y28.93104
X30.02225 Y26.35939
X31.74195 Y23.38132
X32.81371 Y20.08631
X33.17578 Y16.64679
X33.17578 Y2.15474
X33.13601 Y1.75594
X33.02084 Y1.37639
X32.83370 Y1.02620
X32.58902 Y0.72655
X32.27530 Y0.46785
X31.92529 Y0.28071
X31.54574 Y0.16557
X31.14683 Y0.12582
X16.94826 Y0.12594
Z-0.60000
X16.34826 Y0.12595
Z-0.75000 F300.00000
F600.00000X2.14968 Y0.12607
G01 Z-0.80000 F300.00000 ( plunge. )
G04 P0 ( dwell for no time -- G64 should not smooth over this point )
F600.00000
X2.14968 Y0.12607
X1.75581 Y0.16559
X1.37625 Y0.28076
X1.02606 Y0.46790
X0.72634 Y0.71263
X0.46764 Y1.02642
X0.27684 Y1.38538
X0.16544 Y1.75581
X0.12599 Y2.14999
X0.12601 Y9.09976
Z-0.60000
X0.12602 Y9.69976
Z-0.80000 F300.00000
F600.00000X0.12604 Y16.64953
X0.48865 Y20.09154
X1.55954 Y23.38129
X3.28539 Y26.36783
X5.59405 Y28.93064
X8.38871 Y30.96109
X11.53948 Y32.36479
X14.92863 Y33.08516
X18.37810 Y33.08435
X21.75693 Y32.36614
X24.90841 Y30.96391
X27.70785 Y28.93104
X30.02225 Y26.35939
X31.74195 Y23.38132
X32.81371 Y20.08631
X33.17578 Y16.64679
X33.17578 Y2.15474
X33.13601 Y1.75594
X33.02084 Y1.37639
X32.83370 Y1.02620
X32.58902 Y0.72655
X32.27530 Y0.46785
X31.92529 Y0.28071
X31.54574 Y0.16557
X31.14683 Y0.12582
X16.94826 Y0.12594
Z-0.60000
X16.34826 Y0.12595
Z-0.80000 F300.00000
F600.00000X2.14968 Y0.12607
G01 Z-0.85000 F300.00000 ( plunge. )
G04 P0 ( dwell for no time -- G64 should not smooth over this point )
F600.00000
X2.14968 Y0.12607
X1.75581 Y0.16559
X1.37625 Y0.28076
X1.02606 Y0.46790
X0.72634 Y0.71263
X0.46764 Y1.02642
X0.27684 Y1.38538
X0.16544 Y1.75581
X0.12599 Y2.14999
X0.12601 Y9.09976
Z-0.60000
X0.12602 Y9.69976
Z-0.85000 F300.00000
F600.00000X0.12604 Y16.64953
X0.48865 Y20.09154
X1.55954 Y23.38129
X3.28539 Y26.36783
X5.59405 Y28.93064
X8.38871 Y30.96109
X11.53948 Y32.36479
X14.92863 Y33.08516
X18.37810 Y33.08435
X21.75693 Y32.36614
X24.90841 Y30.96391
X27.70785 Y28.93104
X30.02225 Y26.35939
X31.74195 Y23.38132
X32.81371 Y20.08631
X33.17578 Y16.64679
X33.17578 Y2.15474
X33.13601 Y1.75594
X33.02084 Y1.37639
X32.83370 Y1.02620
X32.58902 Y0.72655
X32.27530 Y0.46785
X31.92529 Y0.28071
X31.54574 Y0.16557
X31.14683 Y0.12582
X16.94826 Y0.12594
Z-0.60000
X16.34826 Y0.12595
Z-0.85000 F300.00000
F600.00000X2.14968 Y0.12607
G01 Z-0.90000 F300.00000 ( plunge. )
G04 P0 ( dwell for no time -- G64 should not smooth over this point )
F600.00000
X2.14968 Y0.12607
X1.75581 Y0.16559
X1.37625 Y0.28076
X1.02606 Y0.46790
X0.72634 Y0.71263
X0.46764 Y1.02642
X0.27684 Y1.38538
X0.16544 Y1.75581
X0.12599 Y2.14999
X0.12601 Y9.09976
Z-0.60000
X0.12602 Y9.69976
Z-0.90000 F300.00000
F600.00000X0.12604 Y16.64953
X0.48865 Y20.09154
X1.55954 Y23.38129
X3.28539 Y26.36783
X5.59405 Y28.93064
X8.38871 Y30.96109
X11.53948 Y32.36479
X14.92863 Y33.08516
X18.37810 Y33.08435
X21.75693 Y32.36614
X24.90841 Y30.96391
X27.70785 Y28.93104
X30.02225 Y26.35939
X31.74195 Y23.38132
X32.81371 Y20.08631
X33.17578 Y16.64679
X33.17578 Y2.15474
X33.13601 Y1.75594
X33.02084 Y1.37639
X32.83370 Y1.02620
X32.58902 Y0.72655
X32.27530 Y0.46785
X31.92529 Y0.28071
X31.54574 Y0.16557
X31.14683 Y0.12582
X16.94826 Y0.12594
Z-0.60000
X16.34826 Y0.12595
Z-0.90000 F300.00000
F600.00000X2.14968 Y0.12607
G01 Z-0.95000 F300.00000 ( plunge. )
G04 P0 ( dwell for no time -- G64 should not smooth over this point )
F600.00000
X2.14968 Y0.12607
X1.75581 Y0.16559
X1.37625 Y0.28076
X1.02606 Y0.46790
X0.72634 Y0.71263
X0.46764 Y1.02642
X0.27684 Y1.38538
X0.16544 Y1.75581
X0.12599 Y2.14999
X0.12601 Y9.09976
Z-0.60000
X0.12602 Y9.69976
Z-0.95000 F300.00000
F600.00000X0.12604 Y16.64953
X0.48865 Y20.09154
X1.55954 Y23.38129
X3.28539 Y26.36783
X5.59405 Y28.93064
X8.38871 Y30.96109
X11.53948 Y32.36479
X14.92863 Y33.08516
X18.37810 Y33.08435
X21.75693 Y32.36614
X24.90841 Y30.96391
X27.70785 Y28.93104
X30.02225 Y26.35939
X31.74195 Y23.38132
X32.81371 Y20.08631
X33.17578 Y16.64679
X33.17578 Y2.15474
X33.13601 Y1.75594
X33.02084 Y1.37639
X32.83370 Y1.02620
X32.58902 Y0.72655
X32.27530 Y0.46785
X31.92529 Y0.28071
X31.54574 Y0.16557
X31.14683 Y0.12582
X16.94826 Y0.12594
Z-0.60000
X16.34826 Y0.12595
Z-0.95000 F300.00000
F600.00000X2.14968 Y0.12607
G01 Z-1.00000 F300.00000 ( plunge. )
G04 P0 ( dwell for no time -- G64 should not smooth over this point )
F600.00000
X2.14968 Y0.12607
X1.75581 Y0.16559
X1.37625 Y0.28076
X1.02606 Y0.46790
X0.72634 Y0.71263
X0.46764 Y1.02642
X0.27684 Y1.38538
X0.16544 Y1.75581
X0.12599 Y2.14999
X0.12601 Y9.09976
Z-0.60000
X0.12602 Y9.69976
Z-1.00000 F300.00000
F600.00000X0.12604 Y16.64953
X0.48865 Y20.09154
X1.55954 Y23.38129
X3.28539 Y26.36783
X5.59405 Y28.93064
X8.38871 Y30.96109
X11.53948 Y32.36479
X14.92863 Y33.08516
X18.37810 Y33.08435
X21.75693 Y32.36614
X24.90841 Y30.96391
X27.70785 Y28.93104
X30.02225 Y26.35939
X31.74195 Y23.38132
X32.81371 Y20.08631
X33.17578 Y16.64679
X33.17578 Y2.15474
X33.13601 Y1.75594
X33.02084 Y1.37639
X32.83370 Y1.02620
X32.58902 Y0.72655
X32.27530 Y0.46785
X31.92529 Y0.28071
X31.54574 Y0.16557
X31.14683 Y0.12582
X16.94826 Y0.12594
Z-0.60000
X16.34826 Y0.12595
Z-1.00000 F300.00000
F600.00000X2.14968 Y0.12607
G01 Z-1.05000 F300.00000 ( plunge. )
G04 P0 ( dwell for no time -- G64 should not smooth over this point )
F600.00000
X2.14968 Y0.12607
X1.75581 Y0.16559
X1.37625 Y0.28076
X1.02606 Y0.46790
X0.72634 Y0.71263
X0.46764 Y1.02642
X0.27684 Y1.38538
X0.16544 Y1.75581
X0.12599 Y2.14999
X0.12601 Y9.09976
Z-0.60000
X0.12602 Y9.69976
Z-1.05000 F300.00000
F600.00000X0.12604 Y16.64953
X0.48865 Y20.09154
X1.55954 Y23.38129
X3.28539 Y26.36783
X5.59405 Y28.93064
X8.38871 Y30.96109
X11.53948 Y32.36479
X14.92863 Y33.08516
X18.37810 Y33.08435
X21.75693 Y32.36614
X24.90841 Y30.96391
X27.70785 Y28.93104
X30.02225 Y26.35939
X31.74195 Y23.38132
X32.81371 Y20.08631
X33.17578 Y16.64679
X33.17578 Y2.15474
X33.13601 Y1.75594
X33.02084 Y1.37639
X32.83370 Y1.02620
X32.58902 Y0.72655
X32.27530 Y0.46785
X31.92529 Y0.28071
X31.54574 Y0.16557
X31.14683 Y0.12582
X16.94826 Y0.12594
Z-0.60000
X16.34826 Y0.12595
Z-1.05000 F300.00000
F600.00000X2.14968 Y0.12607
G01 Z-1.10000 F300.00000 ( plunge. )
G04 P0 ( dwell for no time -- G64 should not smooth over this point )
F600.00000
X2.14968 Y0.12607
X1.75581 Y0.16559
X1.37625 Y0.28076
X1.02606 Y0.46790
X0.72634 Y0.71263
X0.46764 Y1.02642
X0.27684 Y1.38538
X0.16544 Y1.75581
X0.12599 Y2.14999
X0.12601 Y9.09976
Z-0.60000
X0.12602 Y9.69976
Z-1.10000 F300.00000
F600.00000X0.12604 Y16.64953
X0.48865 Y20.09154
X1.55954 Y23.38129
X3.28539 Y26.36783
X5.59405 Y28.93064
X8.38871 Y30.96109
X11.53948 Y32.36479
X14.92863 Y33.08516
X18.37810 Y33.08435
X21.75693 Y32.36614
X24.90841 Y30.96391
X27.70785 Y28.93104
X30.02225 Y26.35939
X31.74195 Y23.38132
X32.81371 Y20.08631
X33.17578 Y16.64679
X33.17578 Y2.15474
X33.13601 Y1.75594
X33.02084 Y1.37639
X32.83370 Y1.02620
X32.58902 Y0.72655
X32.27530 Y0.46785
X31.92529 Y0.28071
X31.54574 Y0.16557
X31.14683 Y0.12582
X16.94826 Y0.12594
Z-0.60000
X16.34826 Y0.12595
Z-1.10000 F300.00000
F600.00000X2.14968 Y0.12607
G01 Z-1.15000 F300.00000 ( plunge. )
G04 P0 ( dwell for no time -- G64 should not smooth over this point )
F600.00000
X2.14968 Y0.12607
X1.75581 Y0.16559
X1.37625 Y0.28076
X1.02606 Y0.46790
X0.72634 Y0.71263
X0.46764 Y1.02642
X0.27684 Y1.38538
X0.16544 Y1.75581
X0.12599 Y2.14999
X0.12601 Y9.09976
Z-0.60000
X0.12602 Y9.69976
Z-1.15000 F300.00000
F600.00000X0.12604 Y16.64953
X0.48865 Y20.09154
X1.55954 Y23.38129
X3.28539 Y26.36783
X5.59405 Y28.93064
X8.38871 Y30.96109
X11.53948 Y32.36479
X14.92863 Y33.08516
X18.37810 Y33.08435
X21.75693 Y32.36614
X24.90841 Y30.96391
X27.70785 Y28.93104
X30.02225 Y26.35939
X31.74195 Y23.38132
X32.81371 Y20.08631
X33.17578 Y16.64679
X33.17578 Y2.15474
X33.13601 Y1.75594
X33.02084 Y1.37639
X32.83370 Y1.02620
X32.58902 Y0.72655
X32.27530 Y0.46785
X31.92529 Y0.28071
X31.54574 Y0.16557
X31.14683 Y0.12582
X16.94826 Y0.12594
Z-0.60000
X16.34826 Y0.12595
Z-1.15000 F300.00000
F600.00000X2.14968 Y0.12607
G01 Z-1.20000 F300.00000 ( plunge. )
G04 P0 ( dwell for no time -- G64 should not smooth over this point )
F600.00000
X2.14968 Y0.12607
X1.75581 Y0.16559
X1.37625 Y0.28076
X1.02606 Y0.46790
X0.72634 Y0.71263
X0.46764 Y1.02642
X0.27684 Y1.38538
X0.16544 Y1.75581
X0.12599 Y2.14999
X0.12601 Y9.09976
Z-0.60000
X0.12602 Y9.69976
Z-1.20000 F300.00000
F600.00000X0.12604 Y16.64953
X0.48865 Y20.09154
X1.55954 Y23.38129
X3.28539 Y26.36783
X5.59405 Y28.93064
X8.38871 Y30.96109
X11.53948 Y32.36479
X14.92863 Y33.08516
X18.37810 Y33.08435
X21.75693 Y32.36614
X24.90841 Y30.96391
X27.70785 Y28.93104
X30.02225 Y26.35939
X31.74195 Y23.38132
X32.81371 Y20.08631
X33.17578 Y16.64679
X33.17578 Y2.15474
X33.13601 Y1.75594
X33.02084 Y1.37639
X32.83370 Y1.02620
X32.58902 Y0.72655
X32.27530 Y0.46785
X31.92529 Y0.28071
X31.54574 Y0.16557
X31.14683 Y0.12582
X16.94826 Y0.12594
Z-0.60000
X16.34826 Y0.12595
Z-1.20000 F300.00000
F600.00000X2.14968 Y0.12607
G01 Z-1.25000 F300.00000 ( plunge. )
G04 P0 ( dwell for no time -- G64 should not smooth over this point )
F600.00000
X2.14968 Y0.12607
X1.75581 Y0.16559
X1.37625 Y0.28076
X1.02606 Y0.46790
X0.72634 Y0.71263
X0.46764 Y1.02642
X0.27684 Y1.38538
X0.16544 Y1.75581
X0.12599 Y2.14999
X0.12601 Y9.09976
Z-0.60000
X0.12602 Y9.69976
Z-1.25000 F300.00000
F600.00000X0.12604 Y16.64953
X0.48865 Y20.09154
X1.55954 Y23.38129
X3.28539 Y26.36783
X5.59405 Y28.93064
X8.38871 Y30.96109
X11.53948 Y32.36479
X14.92863 Y33.08516
X18.37810 Y33.08435
X21.75693 Y32.36614
X24.90841 Y30.96391
X27.70785 Y28.93104
X30.02225 Y26.35939
X31.74195 Y23.38132
X32.81371 Y20.08631
X33.17578 Y16.64679
X33.17578 Y2.15474
X33.13601 Y1.75594
X33.02084 Y1.37639
X32.83370 Y1.02620
X32.58902 Y0.72655
X32.27530 Y0.46785
X31.92529 Y0.28071
X31.54574 Y0.16557
X31.14683 Y0.12582
X16.94826 Y0.12594
Z-0.60000
X16.34826 Y0.12595
Z-1.25000 F300.00000
F600.00000X2.14968 Y0.12607

G04 P0 ( dwell for no time -- G64 should not smooth over this point )
G00 Z2.000 ( retract )

M5 ( Spindle off. )
M9 ( Coolant off. )
M2 ( Program end. )

